documentation/public/assets/images/search-input.svg

<svg width="199" height="40" viewBox="0 0 199 40" fill="none" xmlns="http://www.w3.org/2000/svg">
<rect x="0.5" y="0.5" width="198" height="39" rx="3.5" fill="white"/>
<path d="M19.7727 17.2727C19.7045 16.697 19.428 16.25 18.9432 15.9318C18.4583 15.6136 17.8636 15.4545 17.1591 15.4545C16.6439 15.4545 16.1932 15.5379 15.8068 15.7045C15.4242 15.8712 15.125 16.1004 14.9091 16.392C14.697 16.6837 14.5909 17.0152 14.5909 17.3864C14.5909 17.697 14.6648 17.964 14.8125 18.1875C14.964 18.4072 15.1572 18.5909 15.392 18.7386C15.6269 18.8826 15.8731 19.0019 16.1307 19.0966C16.3883 19.1875 16.625 19.2614 16.8409 19.3182L18.0227 19.6364C18.3258 19.7159 18.6629 19.8258 19.0341 19.9659C19.4091 20.1061 19.767 20.2973 20.108 20.5398C20.4527 20.7784 20.7367 21.0852 20.9602 21.4602C21.1837 21.8352 21.2955 22.2955 21.2955 22.8409C21.2955 23.4697 21.1307 24.0379 20.8011 24.5455C20.4754 25.053 19.9981 25.4564 19.3693 25.7557C18.7443 26.0549 17.9848 26.2045 17.0909 26.2045C16.2576 26.2045 15.536 26.0701 14.9261 25.8011C14.3201 25.5322 13.8428 25.1572 13.4943 24.6761C13.1496 24.1951 12.9545 23.6364 12.9091 23H14.3636C14.4015 23.4394 14.5492 23.803 14.8068 24.0909C15.0682 24.375 15.3977 24.5871 15.7955 24.7273C16.197 24.8636 16.6288 24.9318 17.0909 24.9318C17.6288 24.9318 18.1117 24.8447 18.5398 24.6705C18.9678 24.4924 19.3068 24.2462 19.5568 23.9318C19.8068 23.6136 19.9318 23.2424 19.9318 22.8182C19.9318 22.4318 19.8239 22.1174 19.608 21.875C19.392 21.6326 19.108 21.4356 18.7557 21.2841C18.4034 21.1326 18.0227 21 17.6136 20.8864L16.1818 20.4773C15.2727 20.2159 14.553 19.8428 14.0227 19.358C13.4924 18.8731 13.2273 18.2386 13.2273 17.4545C13.2273 16.803 13.4034 16.2348 13.7557 15.75C14.1117 15.2614 14.589 14.8826 15.1875 14.6136C15.7898 14.3409 16.4621 14.2045 17.2045 14.2045C17.9545 14.2045 18.6212 14.339 19.2045 14.608C19.7879 14.8731 20.25 15.2367 20.5909 15.6989C20.9356 16.161 21.1174 16.6856 21.1364 17.2727H19.7727ZM27.0895 26.1818C26.2486 26.1818 25.5232 25.9962 24.9134 25.625C24.3073 25.25 23.8395 24.7273 23.5099 24.0568C23.1842 23.3826 23.0213 22.5985 23.0213 21.7045C23.0213 20.8106 23.1842 20.0227 23.5099 19.3409C23.8395 18.6553 24.2978 18.1212 24.8849 17.7386C25.4759 17.3523 26.1652 17.1591 26.9531 17.1591C27.4077 17.1591 27.8565 17.2348 28.2997 17.3864C28.7429 17.5379 29.1463 17.7841 29.5099 18.125C29.8736 18.4621 30.1634 18.9091 30.3793 19.4659C30.5952 20.0227 30.7031 20.7083 30.7031 21.5227V22.0909H23.9759V20.9318H29.3395C29.3395 20.4394 29.241 20 29.044 19.6136C28.8509 19.2273 28.5743 18.9223 28.2145 18.6989C27.8584 18.4754 27.438 18.3636 26.9531 18.3636C26.419 18.3636 25.9569 18.4962 25.5668 18.7614C25.1804 19.0227 24.883 19.3636 24.6747 19.7841C24.4664 20.2045 24.3622 20.6553 24.3622 21.1364V21.9091C24.3622 22.5682 24.4759 23.1269 24.7031 23.5852C24.9342 24.0398 25.2543 24.3864 25.6634 24.625C26.0724 24.8598 26.5478 24.9773 27.0895 24.9773C27.4418 24.9773 27.7599 24.928 28.044 24.8295C28.3319 24.7273 28.58 24.5758 28.7884 24.375C28.9967 24.1705 29.1577 23.9167 29.2713 23.6136L30.5668 23.9773C30.4304 24.4167 30.2012 24.803 29.8793 25.1364C29.5573 25.4659 29.1596 25.7235 28.6861 25.9091C28.2126 26.0909 27.6804 26.1818 27.0895 26.1818ZM35.3111 26.2045C34.758 26.2045 34.2562 26.1004 33.8054 25.892C33.3546 25.6799 32.9967 25.375 32.7315 24.9773C32.4664 24.5758 32.3338 24.0909 32.3338 23.5227C32.3338 23.0227 32.4323 22.6174 32.6293 22.3068C32.8262 21.9924 33.0895 21.7462 33.419 21.5682C33.7486 21.3902 34.1122 21.2576 34.5099 21.1705C34.9115 21.0795 35.3149 21.0076 35.7202 20.9545C36.2505 20.8864 36.6804 20.8352 37.0099 20.8011C37.3433 20.7633 37.5857 20.7008 37.7372 20.6136C37.8925 20.5265 37.9702 20.375 37.9702 20.1591V20.1136C37.9702 19.553 37.8168 19.1174 37.5099 18.8068C37.2069 18.4962 36.7467 18.3409 36.1293 18.3409C35.4891 18.3409 34.9872 18.4811 34.6236 18.7614C34.2599 19.0417 34.0043 19.3409 33.8565 19.6591L32.5838 19.2045C32.8111 18.6742 33.1141 18.2614 33.4929 17.9659C33.8755 17.6667 34.2921 17.4583 34.7429 17.3409C35.1974 17.2197 35.6444 17.1591 36.0838 17.1591C36.3641 17.1591 36.6861 17.1932 37.0497 17.2614C37.4171 17.3258 37.7713 17.4602 38.1122 17.6648C38.4569 17.8693 38.7429 18.178 38.9702 18.5909C39.1974 19.0038 39.3111 19.5568 39.3111 20.25V26H37.9702V24.8182H37.902C37.8111 25.0076 37.6596 25.2102 37.4474 25.4261C37.2353 25.642 36.9531 25.8258 36.6009 25.9773C36.2486 26.1288 35.8187 26.2045 35.3111 26.2045ZM35.5156 25C36.0459 25 36.4929 24.8958 36.8565 24.6875C37.224 24.4792 37.5005 24.2102 37.6861 23.8807C37.8755 23.5511 37.9702 23.2045 37.9702 22.8409V21.6136C37.9134 21.6818 37.7884 21.7443 37.5952 21.8011C37.4058 21.8542 37.1861 21.9015 36.9361 21.9432C36.6899 21.9811 36.4493 22.0152 36.2145 22.0455C35.9834 22.072 35.7959 22.0947 35.652 22.1136C35.3035 22.1591 34.9777 22.233 34.6747 22.3352C34.3755 22.4337 34.133 22.5833 33.9474 22.7841C33.7656 22.9811 33.6747 23.25 33.6747 23.5909C33.6747 24.0568 33.8471 24.4091 34.1918 24.6477C34.5402 24.8826 34.9815 25 35.5156 25ZM41.7585 26V17.2727H43.054V18.5909H43.1449C43.304 18.1591 43.5919 17.8087 44.0085 17.5398C44.4252 17.2708 44.8949 17.1364 45.4176 17.1364C45.5161 17.1364 45.6392 17.1383 45.7869 17.142C45.9347 17.1458 46.0464 17.1515 46.1222 17.1591V18.5227C46.0767 18.5114 45.9725 18.4943 45.8097 18.4716C45.6506 18.4451 45.482 18.4318 45.304 18.4318C44.8797 18.4318 44.5009 18.5208 44.1676 18.6989C43.8381 18.8731 43.5767 19.1155 43.3835 19.4261C43.1941 19.733 43.0994 20.0833 43.0994 20.4773V26H41.7585ZM50.9915 26.1818C50.1733 26.1818 49.4688 25.9886 48.8778 25.6023C48.2869 25.2159 47.8324 24.6837 47.5142 24.0057C47.196 23.3277 47.0369 22.553 47.0369 21.6818C47.0369 20.7955 47.1998 20.0133 47.5256 19.3352C47.8551 18.6534 48.3134 18.1212 48.9006 17.7386C49.4915 17.3523 50.1809 17.1591 50.9688 17.1591C51.5824 17.1591 52.1354 17.2727 52.6278 17.5C53.1203 17.7273 53.5237 18.0455 53.8381 18.4545C54.1525 18.8636 54.3475 19.3409 54.4233 19.8864H53.0824C52.9801 19.4886 52.7528 19.1364 52.4006 18.8295C52.0521 18.5189 51.5824 18.3636 50.9915 18.3636C50.4688 18.3636 50.0104 18.5 49.6165 18.7727C49.2263 19.0417 48.9214 19.4223 48.7017 19.9148C48.4858 20.4034 48.3778 20.9773 48.3778 21.6364C48.3778 22.3106 48.4839 22.8977 48.696 23.3977C48.9119 23.8977 49.215 24.286 49.6051 24.5625C49.9991 24.839 50.4612 24.9773 50.9915 24.9773C51.34 24.9773 51.6562 24.9167 51.9403 24.7955C52.2244 24.6742 52.465 24.5 52.6619 24.2727C52.8589 24.0455 52.9991 23.7727 53.0824 23.4545H54.4233C54.3475 23.9697 54.16 24.4337 53.8608 24.8466C53.5653 25.2557 53.1733 25.5814 52.6847 25.8239C52.1998 26.0625 51.6354 26.1818 50.9915 26.1818ZM57.7244 20.75V26H56.3835V14.3636H57.7244V18.6364H57.8381C58.0426 18.1856 58.3494 17.8277 58.7585 17.5625C59.1714 17.2936 59.7206 17.1591 60.4062 17.1591C61.0009 17.1591 61.5218 17.2784 61.9688 17.517C62.4157 17.7519 62.7623 18.1136 63.0085 18.6023C63.2585 19.0871 63.3835 19.7045 63.3835 20.4545V26H62.0426V20.5455C62.0426 19.8523 61.8627 19.3163 61.5028 18.9375C61.1468 18.5549 60.6525 18.3636 60.0199 18.3636C59.5805 18.3636 59.1866 18.4564 58.8381 18.642C58.4934 18.8277 58.2206 19.0985 58.0199 19.4545C57.8229 19.8106 57.7244 20.2424 57.7244 20.75Z" fill="#1F1F1F"/>
<path d="M184.087 27.8626C183.887 27.8626 183.687 27.7876 183.537 27.6376L178.875 22.9751C178.575 22.6751 178.575 22.1751 178.875 21.8751C179.175 21.5751 179.675 21.5751 179.975 21.8751L184.637 26.5376C184.937 26.8376 184.937 27.3376 184.637 27.6376C184.487 27.7876 184.287 27.8626 184.087 27.8626Z" fill="#757575"/>
<path d="M175.75 24.5251C172.562 24.5251 169.975 21.9251 169.975 18.7501C169.975 15.5751 172.562 12.9751 175.75 12.9751C178.937 12.9751 181.525 15.5751 181.525 18.7501C181.525 21.9251 178.925 24.5251 175.75 24.5251ZM175.75 14.5251C173.425 14.5251 171.525 16.4126 171.525 18.7501C171.525 21.0876 173.412 22.9751 175.75 22.9751C178.087 22.9751 179.975 21.0876 179.975 18.7501C179.975 16.4126 178.087 14.5251 175.75 14.5251Z" fill="#757575"/>
<rect x="0.5" y="0.5" width="198" height="39" rx="3.5" stroke="#545454"/>
</svg>

<svg width="199" height="40" fill="none" xmlns="http://www.w3.org/2000/svg"><rect x=".5" y=".5" width="198" height="39" rx="3.5" fill="#fff"/><path d="M19.77 17.27a1.78 1.78 0 0 0-.83-1.34 3.18 3.18 0 0 0-1.78-.48c-.52 0-.97.09-1.35.25-.39.17-.69.4-.9.7a1.65 1.65 0 0 0-.1 1.79c.15.22.35.4.58.55.24.14.48.26.74.36l.71.22 1.18.32c.3.08.64.19 1.01.33.38.14.74.33 1.08.57a2.65 2.65 0 0 1 1.19 2.3c0 .63-.17 1.2-.5 1.7-.32.51-.8.92-1.43 1.22-.63.3-1.39.44-2.28.44a5.3 5.3 0 0 1-2.16-.4A3.2 3.2 0 0 1 12.9 23h1.45c.04.44.19.8.45 1.1.26.27.59.49.99.63a4 4 0 0 0 1.3.2c.53 0 1.01-.09 1.44-.26.43-.18.77-.42 1.02-.74s.37-.69.37-1.11c0-.39-.1-.7-.32-.95-.22-.24-.5-.43-.85-.59a8.95 8.95 0 0 0-1.15-.4l-1.43-.4a5.33 5.33 0 0 1-2.16-1.12 2.46 2.46 0 0 1-.8-1.9c0-.66.18-1.23.54-1.71.35-.49.83-.87 1.43-1.14.6-.27 1.27-.4 2.01-.4.75 0 1.42.13 2 .4a3.5 3.5 0 0 1 1.4 1.09c.34.46.52.99.54 1.57h-1.37Zm7.32 8.91a3.74 3.74 0 0 1-3.58-2.13 5.35 5.35 0 0 1-.49-2.35c0-.89.16-1.68.49-2.36a3.7 3.7 0 0 1 3.44-2.18c.46 0 .9.07 1.35.23a3.34 3.34 0 0 1 2.08 2.08c.22.55.32 1.24.32 2.05v.57h-6.72v-1.16h5.36c0-.5-.1-.93-.3-1.32a2.23 2.23 0 0 0-2.09-1.25c-.53 0-1 .14-1.38.4-.39.26-.69.6-.9 1.02a3 3 0 0 0-.3 1.36v.77c0 .66.1 1.22.33 1.68.23.45.55.8.96 1.04.41.23.89.35 1.43.35.35 0 .67-.05.95-.15.3-.1.54-.25.75-.45.2-.2.37-.46.48-.77l1.3.37a2.9 2.9 0 0 1-.7 1.16c-.31.33-.71.58-1.18.77-.48.18-1.01.27-1.6.27Zm8.22.02c-.55 0-1.05-.1-1.5-.3a2.63 2.63 0 0 1-1.08-.92c-.26-.4-.4-.89-.4-1.46 0-.5.1-.9.3-1.21.2-.32.46-.56.79-.74.33-.18.7-.31 1.09-.4.4-.1.8-.16 1.21-.22l1.29-.15c.33-.04.58-.1.73-.19.15-.08.23-.23.23-.45v-.05c0-.56-.15-1-.46-1.3-.3-.31-.76-.47-1.38-.47a2.39 2.39 0 0 0-2.27 1.32l-1.28-.46a3.06 3.06 0 0 1 2.16-1.86 5.19 5.19 0 0 1 2.31-.08c.37.07.72.2 1.06.4.35.2.63.52.86.93.23.41.34.97.34 1.66V26h-1.34v-1.18h-.07a2.62 2.62 0 0 1-1.3 1.16c-.35.15-.78.22-1.29.22Zm.2-1.2c.54 0 .98-.1 1.35-.31a2.13 2.13 0 0 0 1.11-1.85v-1.23a.93.93 0 0 1-.37.2c-.2.04-.41.1-.66.13a29.88 29.88 0 0 1-1.29.17c-.35.05-.67.12-.98.23-.3.1-.54.24-.72.44-.18.2-.28.47-.28.81 0 .47.18.82.52 1.06.35.23.8.35 1.33.35Zm6.25 1v-8.73h1.3v1.32h.08c.16-.43.45-.78.87-1.05s.88-.4 1.4-.4a15.24 15.24 0 0 1 .71.02v1.36a4.02 4.02 0 0 0-.82-.09c-.42 0-.8.1-1.13.27a1.96 1.96 0 0 0-1.07 1.78V26h-1.34Zm9.23.18a3.8 3.8 0 0 1-2.11-.58A3.78 3.78 0 0 1 47.5 24a5.4 5.4 0 0 1-.47-2.32c0-.88.16-1.67.49-2.34a3.7 3.7 0 0 1 3.44-2.18c.61 0 1.17.11 1.66.34a2.98 2.98 0 0 1 1.8 2.39h-1.35a2.04 2.04 0 0 0-2.1-1.52c-.51 0-.97.13-1.36.4-.4.27-.7.65-.92 1.14a4.23 4.23 0 0 0-.32 1.73c0 .67.1 1.26.32 1.76.21.5.52.89.9 1.16.4.28.86.42 1.4.42.34 0 .66-.06.94-.18a1.96 1.96 0 0 0 1.14-1.35h1.34a3.1 3.1 0 0 1-1.74 2.37 3.8 3.8 0 0 1-1.69.36Zm6.73-5.43V26h-1.34V14.36h1.34v4.28h.12c.2-.45.5-.81.92-1.08.41-.27.96-.4 1.65-.4.6 0 1.11.12 1.56.36.45.23.8.6 1.04 1.08.25.49.37 1.1.37 1.85V26h-1.34v-5.45c0-.7-.18-1.23-.54-1.61a1.93 1.93 0 0 0-1.48-.58c-.44 0-.83.1-1.18.28-.35.19-.62.46-.82.81-.2.36-.3.8-.3 1.3Z" fill="#1F1F1F"/><path d="M184.09 27.86c-.2 0-.4-.07-.55-.22l-4.66-4.66c-.3-.3-.3-.8 0-1.1.3-.3.8-.3 1.1 0l4.66 4.66c.3.3.3.8 0 1.1a.78.78 0 0 1-.55.22Z" fill="#757575"/><path d="M175.75 24.53a5.79 5.79 0 0 1 0-11.55 5.79 5.79 0 0 1 0 11.55Zm0-10a4.23 4.23 0 1 0 0 8.45 4.23 4.23 0 0 0 0-8.45Z" fill="#757575"/><rect x=".5" y=".5" width="198" height="39" rx="3.5" stroke="#545454"/></svg>
